X: 28046
T: Mozart On The Rampage
R: reel
M: 4/4
K: Dmajor
|:g3d Bdge|fgfd Adfd|eA A2 aece|fA A2 agfd|
g3d Bdge|fgfd Adfd|eA A2 aece|1 cddc d4:|2 cddc d3||
|:c|B2 gB BgdB|A2 fA AfdA|A2 eA AecA|A2 fA AfdA|
B2 gB BgdB|A2 fA AfdA|A2 eA AecA|1 cddc d4:|2 cddc d2 dc||
B2 gB Bage|fAdf agfd|eAce aece|fAdf a4||
B2 gB Bage|fAdf agfd|eAce aece|cddc d4||

